docs/assets/pass.svg

<svg width="186" height="40" viewBox="0 0 186 40" fill="none" xmlns="http://www.w3.org/2000/svg">
<path d="M0 2.28989C1.01719 0.535932 2.51875 0 4.50469 0C63.5016 0.0487211 122.45 0.0487211 181.447 0C183.481 0 184.983 0.535932 185.952 2.28989C185.952 14.0804 185.952 25.8709 185.952 37.6614C185.031 39.3666 183.627 40 181.641 40C122.547 39.9513 63.4531 39.9513 4.31094 40C2.325 40 0.920313 39.4153 0 37.6614C0 25.8709 0 14.0804 0 2.28989ZM50.4719 20.0244C48.5828 21.2911 46.7906 22.4604 45.0953 23.6297C43.1578 24.9452 42.6734 26.7966 43.7391 28.4531C44.8531 30.2071 46.7906 30.4507 48.825 29.1352C50.1813 28.2582 51.4891 27.3812 52.9906 26.3581C53.4266 29.1839 52.1188 33.0816 56.3813 33.179C60.8375 33.2765 59.4328 29.1839 59.9656 26.4068C61.5156 27.43 62.8719 28.4531 64.325 29.2326C65.1969 29.6711 66.4078 30.1096 67.1828 29.7686C68.1516 29.3788 69.1203 28.3557 69.5563 27.3325C70.1375 25.9683 69.4109 24.7016 68.2 23.8733C66.3594 22.5579 64.4703 21.2911 62.4844 19.9756C64.3734 18.7089 66.0688 17.5883 67.7641 16.419C69.7984 15.0061 70.2828 13.1547 69.1203 11.4495C68.0063 9.79294 66.1172 9.54933 64.0344 10.9135C62.6781 11.7905 61.3703 12.6675 59.7719 13.7393C59.7719 12.2777 59.8203 11.2546 59.7719 10.2314C59.6266 8.03898 58.3188 6.67479 56.4297 6.67479C54.5406 6.67479 53.2328 8.0877 53.1359 10.2801C53.0875 11.3033 53.1359 12.3752 53.1359 13.7393C51.4406 12.57 50.0844 11.6443 48.7281 10.8161C46.7906 9.59805 44.8531 9.89038 43.7875 11.4982C42.7219 13.1547 43.2063 15.0548 45.0469 16.3216C46.7906 17.5396 48.5344 18.7089 50.4719 20.0244ZM135.528 20.0244C137.466 18.7089 139.258 17.5883 141.002 16.3703C142.891 15.0548 143.375 13.1547 142.261 11.4982C141.147 9.84166 139.258 9.59805 137.32 10.8161C135.916 11.6931 134.559 12.6675 132.913 13.7393C132.913 12.3752 132.961 11.352 132.913 10.3289C132.816 8.13642 131.508 6.72351 129.619 6.72351C127.73 6.67479 126.373 8.0877 126.277 10.2801C126.228 11.352 126.277 12.3752 126.277 13.8368C124.581 12.7162 123.273 11.6931 121.869 10.9622C120.997 10.5238 119.786 9.98782 119.059 10.2801C118.042 10.7186 116.977 11.7418 116.541 12.7649C115.959 14.0804 116.686 15.3959 117.897 16.2241C119.738 17.5396 121.627 18.7576 123.661 20.1218C121.675 21.486 119.834 22.6553 118.042 23.922C116.25 25.1888 115.863 27.0402 116.977 28.648C118.042 30.2071 119.834 30.5481 121.627 29.4762C123.128 28.5505 124.581 27.5761 126.325 26.4555C126.325 27.5761 126.325 28.3069 126.325 29.0378C126.325 31.961 127.536 33.4714 129.716 33.4227C131.847 33.3739 133.009 31.8636 133.009 29.0865C133.009 28.3069 133.009 27.4787 133.009 26.4068C134.656 27.4787 135.916 28.3557 137.175 29.1839C139.355 30.5968 141.292 30.4019 142.406 28.5993C143.472 26.894 142.939 25.0426 140.905 23.6784C139.064 22.363 137.369 21.2424 135.528 20.0244ZM23.3953 26.3581C24.8969 27.3325 26.2047 28.2582 27.5609 29.1352C29.6438 30.4507 31.5328 30.2071 32.6469 28.5018C33.7125 26.8453 33.1797 24.8965 31.1938 23.5323C29.4984 22.363 27.8031 21.2424 25.9625 19.9756C27.9 18.6602 29.6438 17.5396 31.3875 16.3216C33.2281 15.0548 33.7125 13.0572 32.6469 11.4495C31.5328 9.79294 29.6438 9.54933 27.7063 10.7674C26.2531 11.6931 24.8969 12.6675 23.25 13.7881C23.25 12.3752 23.2984 11.3033 23.25 10.2314C23.1531 8.13642 21.7484 6.67479 19.8594 6.72351C18.0188 6.77223 16.7109 8.13642 16.6625 10.1827C16.6141 11.3033 16.6625 12.3752 16.6625 13.7881C14.9188 12.6188 13.6109 11.6443 12.2063 10.8648C11.3344 10.4263 10.1234 9.89038 9.39688 10.1827C8.37969 10.6212 7.3625 11.6443 6.87813 12.6675C6.24844 14.0317 7.07188 15.2984 8.23438 16.1267C10.075 17.4421 11.9641 18.6602 13.9984 20.0244C12.1094 21.2911 10.4625 22.4117 8.81563 23.5323C6.68438 24.9939 6.15156 26.8453 7.3625 28.5993C8.525 30.3045 10.3656 30.4507 12.4969 29.0865C13.8531 28.2095 15.1609 27.3325 16.6141 26.3581C17.0984 29.2326 15.6453 33.179 20.0047 33.2278C24.3641 33.2278 22.9109 29.1839 23.3953 26.3581ZM86.9938 20.0244C85.0563 21.2911 83.3609 22.4604 81.6656 23.581C79.6797 24.9452 79.1469 26.894 80.3094 28.5505C81.4719 30.2558 83.3125 30.4507 85.3953 29.0865C86.7516 28.2095 88.0594 27.3325 89.6578 26.2607C89.6578 27.6736 89.6578 28.648 89.6578 29.6711C89.7063 31.8636 90.9656 33.2765 92.8547 33.3252C94.8406 33.3739 96.1969 31.961 96.2453 29.6711C96.2453 28.648 96.2453 27.5761 96.2453 26.4068C96.6813 26.6017 96.8266 26.6504 96.9234 26.6991C98.1344 27.4787 99.3453 28.3069 100.556 29.0865C102.639 30.4507 104.528 30.2071 105.642 28.5018C106.756 26.8453 106.223 24.8965 104.238 23.5323C102.542 22.363 100.847 21.2424 98.9578 19.9756C100.798 18.7089 102.494 17.5883 104.189 16.4677C106.175 15.1035 106.756 13.2034 105.691 11.4982C104.577 9.74421 102.639 9.50061 100.459 10.9135C99.1031 11.7905 97.7953 12.6675 96.2453 13.6906C96.2453 12.1803 96.2938 11.1084 96.2453 10.0365C96.1484 8.03898 94.7922 6.62607 92.9516 6.62607C91.1109 6.62607 89.7547 8.03898 89.6578 10.0365C89.6094 11.1571 89.6578 12.2777 89.6578 13.3496C89.3672 13.3983 89.2703 13.3983 89.2703 13.3983C87.9625 12.5213 86.6547 11.6931 85.2984 10.8161C83.2641 9.50061 81.3266 9.79294 80.2125 11.4982C79.1469 13.106 79.6797 15.0548 81.5688 16.3216C83.3125 17.5396 85.0563 18.7089 86.9938 20.0244ZM165.995 26.6991C162.847 26.6991 159.698 26.6991 156.55 26.6991C154.225 26.6991 152.82 27.9659 152.82 29.9635C152.82 32.0097 154.177 33.2765 156.502 33.2765C162.847 33.2765 169.192 33.2765 175.538 33.2765C177.814 33.2765 179.316 31.961 179.316 30.0122C179.316 28.0633 177.863 26.6991 175.586 26.6991C172.438 26.6991 169.241 26.6991 165.995 26.6991Z" fill="white"/>
</svg>

<svg xmlns="http://www.w3.org/2000/svg" width="186" height="40" fill="none" xmlns:v="https://vecta.io/nano"><path d="M0 2.29C1.017.536 2.519 0 4.505 0h176.942c2.034 0 3.536.536 4.505 2.29v35.372c-.921 1.705-2.325 2.339-4.311 2.339-59.094-.049-118.188-.049-177.33 0C2.325 40 .92 39.415 0 37.661V2.29zm50.472 17.735l-5.377 3.605c-1.937 1.316-2.422 3.167-1.356 4.823 1.114 1.754 3.051 1.998 5.086.682l4.166-2.777c.436 2.826-.872 6.724 3.391 6.821 4.456.097 3.051-3.995 3.584-6.772 1.55 1.023 2.906 2.046 4.359 2.826.872.438 2.083.877 2.858.536.969-.39 1.938-1.413 2.373-2.436.581-1.364-.145-2.631-1.356-3.459-1.841-1.315-3.73-2.582-5.716-3.898l5.28-3.557c2.034-1.413 2.519-3.264 1.356-4.969-1.114-1.657-3.003-1.9-5.086-.536l-4.263 2.826c0-1.462.048-2.485 0-3.508-.145-2.192-1.453-3.557-3.342-3.557s-3.197 1.413-3.294 3.605c-.048 1.023 0 2.095 0 3.459-1.695-1.169-3.051-2.095-4.408-2.923-1.937-1.218-3.875-.926-4.941.682-1.066 1.656-.581 3.557 1.259 4.823l5.425 3.703zm85.056 0l5.474-3.654c1.889-1.315 2.373-3.216 1.259-4.872s-3.003-1.9-4.941-.682c-1.404.877-2.761 1.851-4.407 2.923 0-1.364.048-2.387 0-3.41-.097-2.192-1.405-3.605-3.294-3.605-1.889-.049-3.246 1.364-3.342 3.557-.049 1.072 0 2.095 0 3.557-1.696-1.121-3.004-2.144-4.408-2.875-.872-.438-2.083-.974-2.81-.682-1.017.439-2.082 1.462-2.518 2.485-.582 1.315.145 2.631 1.356 3.459 1.841 1.316 3.73 2.534 5.764 3.898l-5.619 3.8c-1.792 1.267-2.179 3.118-1.065 4.726 1.065 1.559 2.857 1.9 4.65.828 1.501-.926 2.954-1.9 4.698-3.021v2.582c0 2.923 1.211 4.434 3.391 4.385 2.131-.049 3.293-1.559 3.293-4.336v-2.68l4.166 2.777c2.18 1.413 4.117 1.218 5.231-.585 1.066-1.705.533-3.557-1.501-4.921-1.841-1.315-3.536-2.436-5.377-3.654zM23.395 26.358l4.166 2.777c2.083 1.316 3.972 1.072 5.086-.633 1.066-1.656.533-3.605-1.453-4.969l-5.231-3.557 5.425-3.654c1.841-1.267 2.325-3.264 1.259-4.872-1.114-1.657-3.003-1.9-4.941-.682-1.453.926-2.809 1.9-4.456 3.021 0-1.413.048-2.485 0-3.557-.097-2.095-1.502-3.557-3.391-3.508-1.841.049-3.149 1.413-3.197 3.459-.048 1.121 0 2.192 0 3.605-1.744-1.169-3.052-2.144-4.456-2.923-.872-.439-2.083-.974-2.809-.682-1.017.438-2.034 1.462-2.519 2.485-.63 1.364.194 2.631 1.356 3.459 1.841 1.315 3.73 2.534 5.764 3.898l-5.183 3.508c-2.131 1.462-2.664 3.313-1.453 5.067 1.163 1.705 3.003 1.851 5.134.487l4.117-2.728c.484 2.875-.969 6.821 3.391 6.87 4.359 0 2.906-4.044 3.391-6.87zm63.598-6.334l-5.328 3.557c-1.986 1.364-2.519 3.313-1.356 4.97 1.163 1.705 3.003 1.9 5.086.536l4.262-2.826v3.41c.049 2.193 1.308 3.605 3.197 3.654 1.986.049 3.342-1.364 3.391-3.654v-3.264l.678.292 3.633 2.387c2.083 1.364 3.972 1.121 5.086-.585 1.114-1.656.581-3.605-1.404-4.969l-5.28-3.557 5.231-3.508c1.986-1.364 2.567-3.264 1.502-4.969-1.114-1.754-3.052-1.998-5.232-.585l-4.214 2.777c0-1.51.049-2.582 0-3.654-.097-1.998-1.453-3.41-3.294-3.41s-3.197 1.413-3.294 3.41c-.048 1.121 0 2.241 0 3.313-.291.049-.387.049-.387.049l-3.972-2.582c-2.034-1.315-3.972-1.023-5.086.682-1.066 1.608-.533 3.557 1.356 4.823l5.425 3.703zm79.001 6.675h-9.445c-2.325 0-3.73 1.267-3.73 3.264 0 2.046 1.357 3.313 3.682 3.313h19.036c2.276 0 3.778-1.315 3.778-3.264s-1.453-3.313-3.73-3.313h-9.591z" fill="#fff"/></svg>
